assets/Yawning face/Flat/yawning_face_flat.svg

<svg width="32" height="32" viewBox="0 0 32 32" fill="none" xmlns="http://www.w3.org/2000/svg">
<path d="M15.9989 29.9978C25.3333 29.9978 29.9978 23.7303 29.9978 15.9989C29.9978 8.26751 25.3333 2 15.9989 2C6.66443 2 2 8.26751 2 15.9989C2 23.7303 6.66443 29.9978 15.9989 29.9978Z" fill="#FFB02E"/>
<circle cx="16" cy="21" r="6" fill="#BB1D80"/>
<path fill-rule="evenodd" clip-rule="evenodd" d="M13.2003 17.9389C13.5215 17.4536 13.4683 16.7936 13.0409 16.3661C12.5527 15.878 11.7613 15.878 11.2731 16.3661L8.15688 19.4823V18.5C8.15688 17.8096 7.59724 17.25 6.90688 17.25C6.21653 17.25 5.65773 17.8095 5.62156 18.4989C5.53572 20.1353 5.27595 22.3214 4.65688 23.25C3.65688 24.75 3.65679 27.75 5.65688 29.25C9.47301 32.112 13.9906 27.2317 14.3981 26.7767L17.0409 24.1339C17.529 23.6457 17.529 22.8543 17.0409 22.3661C16.789 22.1142 16.4563 21.9923 16.1262 22.0004L16.4801 21.6907C16.9997 21.2361 17.0523 20.4464 16.5977 19.9269C16.1806 19.4502 15.4815 19.3666 14.9677 19.707L16.0409 18.6339C16.529 18.1457 16.529 17.3543 16.0409 16.8661C15.5527 16.378 14.7613 16.378 14.2731 16.8661L13.2003 17.9389Z" fill="#FF822D"/>
<path fill-rule="evenodd" clip-rule="evenodd" d="M7.8944 12.4471C8.24896 11.738 9.0045 11.1358 9.9412 10.8236C10.8779 10.5114 11.8437 10.5398 12.5528 10.8943C13.0468 11.1413 13.6474 10.9411 13.8944 10.4471C14.1414 9.95312 13.9412 9.35245 13.4472 9.10546C12.1563 8.46003 10.622 8.48846 9.30875 8.92622C7.99545 9.36399 6.75099 10.2618 6.10555 11.5527C5.85856 12.0467 6.05879 12.6474 6.55277 12.8943C7.04674 13.1413 7.64742 12.9411 7.8944 12.4471ZM24.1055 12.4471C23.751 11.738 22.9955 11.1358 22.0587 10.8236C21.122 10.5114 20.1563 10.5398 19.4472 10.8943C18.9532 11.1413 18.3525 10.9411 18.1055 10.4471C17.8586 9.95312 18.0588 9.35245 18.5528 9.10546C19.8437 8.46003 21.3779 8.48846 22.6912 8.92622C24.0045 9.36399 25.249 10.2618 25.8944 11.5527C26.1414 12.0467 25.9412 12.6474 25.4472 12.8943C24.9532 13.1413 24.3525 12.9411 24.1055 12.4471Z" fill="#402A32"/>
</svg>

<svg xmlns="http://www.w3.org/2000/svg" width="32" height="32" fill="none"><path fill="#FFB02E" d="M15.999 29.998c9.334 0 13.999-6.268 13.999-14 0-7.73-4.665-13.998-14-13.998C6.665 2 2 8.268 2 15.999c0 7.731 4.664 13.999 13.999 13.999Z"/><circle cx="16" cy="21" r="6" fill="#BB1D80"/><path fill="#FF822D" fill-rule="evenodd" d="M13.2 17.939a1.25 1.25 0 0 0-1.927-1.573l-3.116 3.116V18.5c0-.69-.56-1.25-1.25-1.25s-1.25.56-1.285 1.249c-.086 1.636-.346 3.822-.965 4.751-1 1.5-1 4.5 1 6 3.816 2.862 8.334-2.018 8.741-2.473l2.643-2.643A1.25 1.25 0 0 0 16.126 22l.354-.31a1.25 1.25 0 0 0-1.512-1.983l1.073-1.073a1.25 1.25 0 0 0-1.768-1.768L13.2 17.94Z" clip-rule="evenodd"/><path fill="#402A32" fill-rule="evenodd" d="M7.894 12.447c.355-.709 1.11-1.311 2.047-1.623.937-.313 1.903-.284 2.612.07a1 1 0 1 0 .894-1.789c-1.29-.645-2.825-.617-4.138-.179-1.314.438-2.558 1.336-3.203 2.627a1 1 0 1 0 1.788.894Zm16.211 0c-.354-.709-1.11-1.311-2.046-1.623-.937-.313-1.903-.284-2.612.07a1 1 0 1 1-.894-1.789c1.29-.645 2.825-.617 4.138-.179 1.314.438 2.558 1.336 3.203 2.627a1 1 0 1 1-1.788.894Z" clip-rule="evenodd"/></svg>
